X:1
T: Rustic Reel
C:
R:Jig
Q:180
K:D
M:6/8
L:1/16
|:A2|f4e2 d2c2B2|A4F2 D4E2|F2G2F2 F2E2D2|F6 E4A2|
f4e2 d2c2B2|A4F2 D4E2|F2G2F2 E2D2E2|D6D4:|
|:A2|g4e2 f4d2|c4d2 e2c2A2|g4e2 f4d2|c2e2c2 A4A2|
g4e2 f4d2|c2d2e2 f2g2a2|e2c2e2 d2c2B2|1A2A2B2 c2d2e2:|2A2B2c2 d4||
